img/star3.svg

<svg width="716" height="716" viewBox="0 0 716 716" fill="none" xmlns="http://www.w3.org/2000/svg">
<path opacity="0.6" d="M324.792 24.4278C336.751 -5.59689 379.249 -5.59688 391.208 24.4278C401.594 50.5038 435.398 57.2277 454.972 37.1112C477.511 13.9485 516.774 30.212 516.333 62.5277C515.95 90.5934 544.607 109.741 570.389 98.6471C600.076 85.8727 630.127 115.924 617.353 145.611C606.259 171.393 625.407 200.05 653.472 199.667C685.788 199.226 702.051 238.489 678.889 261.028C658.772 280.602 665.496 314.406 691.572 324.792C721.597 336.751 721.597 379.249 691.572 391.208C665.496 401.594 658.772 435.398 678.889 454.972C702.051 477.511 685.788 516.774 653.472 516.333C625.407 515.95 606.259 544.607 617.353 570.389C630.127 600.076 600.076 630.127 570.389 617.353C544.607 606.259 515.95 625.407 516.333 653.472C516.774 685.788 477.511 702.051 454.972 678.889C435.398 658.772 401.594 665.496 391.208 691.572C379.249 721.597 336.751 721.597 324.792 691.572C314.406 665.496 280.602 658.772 261.028 678.889C238.489 702.051 199.226 685.788 199.667 653.472C200.05 625.407 171.393 606.259 145.611 617.353C115.924 630.127 85.8727 600.076 98.6471 570.389C109.741 544.607 90.5934 515.95 62.5277 516.333C30.212 516.774 13.9485 477.511 37.1112 454.972C57.2277 435.398 50.5038 401.594 24.4278 391.208C-5.59689 379.249 -5.59688 336.751 24.4278 324.792C50.5038 314.406 57.2277 280.602 37.1112 261.028C13.9485 238.489 30.212 199.226 62.5277 199.667C90.5934 200.05 109.741 171.393 98.6471 145.611C85.8727 115.924 115.924 85.8727 145.611 98.6471C171.393 109.741 200.05 90.5934 199.667 62.5277C199.226 30.212 238.489 13.9485 261.028 37.1112C280.602 57.2277 314.406 50.5038 324.792 24.4278Z" stroke="#2391FF" stroke-opacity="0.4" stroke-width="3"/>
</svg>

<svg width="716" height="716" fill="none" xmlns="http://www.w3.org/2000/svg"><path opacity=".6" d="M324.792 24.428c11.959-30.025 54.457-30.025 66.416 0 10.386 26.076 44.19 32.8 63.764 12.683 22.539-23.162 61.802-6.899 61.361 25.417-.383 28.065 28.274 47.213 54.056 36.12 29.687-12.775 59.738 17.276 46.964 46.963-11.094 25.782 8.054 54.439 36.119 54.056 32.316-.441 48.579 38.822 25.417 61.361-20.117 19.574-13.393 53.378 12.683 63.764 30.025 11.959 30.025 54.457 0 66.416-26.076 10.386-32.8 44.19-12.683 63.764 23.162 22.539 6.899 61.802-25.417 61.361-28.065-.383-47.213 28.274-36.119 54.056 12.774 29.687-17.277 59.738-46.964 46.964-25.782-11.094-54.439 8.054-54.056 36.119.441 32.316-38.822 48.579-61.361 25.417-19.574-20.117-53.378-13.393-63.764 12.683-11.959 30.025-54.457 30.025-66.416 0-10.386-26.076-44.19-32.8-63.764-12.683-22.539 23.162-61.802 6.899-61.361-25.417.383-28.065-28.274-47.213-54.056-36.119-29.687 12.774-59.738-17.277-46.964-46.964 11.094-25.782-8.054-54.439-36.12-54.056-32.315.441-48.578-38.822-25.416-61.361 20.117-19.574 13.393-53.378-12.683-63.764-30.025-11.959-30.025-54.457 0-66.416 26.076-10.386 32.8-44.19 12.683-63.764-23.162-22.539-6.899-61.802 25.417-61.361 28.065.383 47.213-28.274 36.12-54.056-12.775-29.687 17.276-59.738 46.963-46.964 25.782 11.094 54.439-8.054 54.056-36.12-.441-32.315 38.822-48.578 61.361-25.416 19.574 20.117 53.378 13.393 63.764-12.683z" stroke="#2391FF" stroke-opacity=".4" stroke-width="3"/></svg>
